X:1
T:Epiphany (Wesley), 11.10.11.10 D
T:Epiphany (Wesley), 11.10.11.10 D
T:Samuel Sebastian Wesley, 1864
T:Public Domain Courtesy of the Cyber Hymnal™)
C:Samuel Sebastian Wesley, 1864
Z:Public Domain
Z:Courtesy of the Cyber Hymnal™)
%%score ( 1 2 ) ( 3 4 )
L:1/8
Q:1/4=115
M:none
K:F
V:1 treble 
V:2 treble 
V:3 bass 
V:4 bass 
V:1
 [Cc]4 [Df]2 [Dd]2 | [Gc]4 [EB]2 [EA]2 | ([EG]2 [DF]2) [DA]2 [DG]2 | [CF]4 [CE]2 z2 | %4
 F4 [FG]2 [FA]2 | [FB]4 [Ec]2 [Ed]2 | [Fc]4 [FB]2 [FA]2 | [EG]4 z4 | [Fc]4 [Df]2 [Dd]2 | %9
 [Gc]4 [EB]2 [EA]2 | ([EG]2 [DF]2) [DA]2 [DG]2 | [CF]4 [CE]4 | [EG]4 [DF]2 [DF]2 | %13
 [EB]4 [FA]2 [FA]2 | [FG]4 [EG]2 [EG]2 | F4 z4 | [DA]4 [^CA]2 [CA]2 | [Dd]4 [Af]2 [Af]2 | %18
 [Ge]4 [Fd]2 [Ge]2 | [Fd]4 [E^c]4 | [Dd]4 [Ac]2 [Ac]2 | [GB]4 [EA]2 [EA]2 | [DG]4 [DF]2 [DG]2 | %23
 [EA]4 z4 | [Fc]4 [Df]2 [Dd]2 | [Gc]4 [EB]2 [EA]2 | ([EG]2 F2) [DA]2 [DG]2 | [CF]4 [CE]4 | %28
 [EB]4 [FA]2 [FA]2 | [Ed]4 [Fc]2 [Fc]2 | [FB]2 [FA]2 [EG]4 | F8 |] %32
V:2
 x8 | x8 | x8 | x8 | F4 x4 | x8 | x8 | x8 | x8 | x8 | x8 | x8 | x8 | x8 | x8 | F4 x4 | x8 | x8 | %18
 x8 | x8 | x8 | x8 | x8 | x8 | x8 | x8 | x2 F2 x4 | x8 | x8 | x8 | x8 | F8 |] %32
V:3
 [F,A,]4 [F,A,]2 [F,A,]2 | [E,C]4 [C,C]2 [C,C]2 | [D,A,]4 [B,,C]2 [B,,B,]2 | [C,A,]4 [C,G,]2 z2 | %4
 [A,,C]4 [B,,D]2 [C,C]2 | [D,B,]4 [G,,B,]2 [G,,B,]2 | [A,,C]4 [B,,D]2 [B,,D]2 | [C,G,]4 z4 | %8
 A,4 [F,A,]2 [F,A,]2 | [E,C]4 [C,C]2 [C,C]2 | [D,A,]4 [B,,C]2 [B,,B,]2 | [C,A,]4 [C,G,]4 | %12
 [^C,B,]4 [D,A,]2 [D,A,]2 | [G,,B,]4 [A,,C]2 [A,,C]2 | [B,,D]4 [C,C]2 [C,B,]2 | [F,,A,]4 z4 | %16
 [D,F,]4 [E,G,]2 [E,G,]2 | [F,A,]4 [F,,F,C]2 [F,,F,C]2 | [G,,G,B,]4 [B,,B,]2 [G,,G,B,]2 | %19
 [A,,A,]4 [A,,A,]4 | [B,,D]4 [^F,D]2 [F,D]2 | [G,D]4 [A,^C]2 [A,C]2 | [B,D]4 [B,,D]2 [B,,D]2 | %23
 [A,,^C]4 z4 | [F,A,]4 [F,A,]2 [F,A,]2 | [E,C]4 [C,C]2 [C,C]2 | (B,2 A,2) [B,,C]2 [B,,B,]2 | %27
 [C,A,]4 [C,G,]4 | [^C,G,]4 [D,F,]2 [D,F,]2 | [G,,B,]4 [A,,C]2 [A,,C]2 | [B,,D]2 [B,,C]2 [C,B,]4 | %31
 [F,,F,A,]8 |] %32
V:4
 x8 | x8 | x8 | x8 | x8 | x8 | x8 | x8 | A,4 x4 | x8 | x8 | x8 | x8 | x8 | x8 | x8 | x8 | x8 | x8 | %19
 x8 | x8 | x8 | x8 | x8 | x8 | x8 | D,4 x4 | x8 | x8 | x8 | x8 | x8 |] %32

